svgs/sharp-regular/list-tree.svg

<svg xmlns="http://www.w3.org/2000/svg" viewBox="0 0 512 512"><!--! Font Awesome Pro 6.6.0 by @fontawesome - https://fontawesome.com License - https://fontawesome.com/license (Commercial License) Copyright 2024 Fonticons, Inc. --><path d="M96 48L0 48l0 96 24 0 0 112 0 160 0 24 24 0 80 0 0 24 96 0 0-96-96 0 0 24-56 0 0-112 56 0 0 24 96 0 0-96-96 0 0 24-56 0 0-88 24 0 0-96zm64 24l0 48 24 0 304 0 24 0 0-48-24 0L184 72l-24 0zM288 232l0 48 24 0 176 0 24 0 0-48-24 0-176 0-24 0zm0 160l0 48 24 0 176 0 24 0 0-48-24 0-176 0-24 0z"/></svg>

<svg xmlns="http://www.w3.org/2000/svg" viewBox="0 0 512 512"><!--! Font Awesome Pro 6.4.0 by @fontawesome - https://fontawesome.com License - https://fontawesome.com/license (Commercial License) Copyright 2023 Fonticons, Inc. --><path d="M96 48H0v96H24V256 416v24H48h80v24h96V368H128v24H72V280h56v24h96V208H128v24H72V144H96V48zm64 24v48h24H488h24V72H488 184 160zM288 232v48h24H488h24V232H488 312 288zm0 160v48h24H488h24V392H488 312 288z"/></svg>
